X: 1
T:The Elk's Festival
M:C
L:1/8
Q:80
C:arranged by Tadhg O'Crowley
S:Hornpipe
K:HP
|: f|
{g}A2{GdGe}A3/2d/2{g}f3/2e/2{gde}d3/2c/2|
{g}B2{GdGe}B3/2d/2{gf}g3/2f/2{gef}e3/2d/2|
{gcd}c3/2A/2{g}c3/2e/2{ag}a3/2g/2{afg}f3/2e/2|  !
{gfg}f3/2c/2{gde}d3/2B/2{g}A2{gfg}fd|
{g}A2{GdGe}A3/2d/2{g}f3/2e/2{gde}d3/2c/2|
{g}B2{GdGe}B3/2d/2{gf}g2a3/2g/2|  !
{afg}f3/2d/2{g}A3/2d/2{g}B3/2g/2{ef}e3/2c/2|
{Gdc}d2{c}d2{gdc}d2:| |:
{g}fg|  !
{ag}a2{gf}g3/2d/2{g}Ad{gfg}fd|
{gf}g2{ef}ec{g}A{d}c{gef}ec|
{g}f3/2d/2{gf}g3/2e/2{ag}a3/2g/2{afg}f3/2e/2|  !
{gfg}f3/2c/2{gde}d3/2B/2{g}A2{g}fg|
{ag}a2{gf}g3/2d/2{g}Ad{gfg}fd|
{gf}g2{ef}ec{g}A2a3/2g/2|  !
{afg}f3/2d/2{g}A3/2d/2{g}B3/2g/2{ef}e3/2c/2|
{Gdc}d2{c}d2{gdc}d2:|
